build/flags/NewCaledonia.svg

<svg xmlns="http://www.w3.org/2000/svg" fill="none" mask="url(#New_Caledonia_svg__a)" viewBox="0 0 28 28" focusable="false"><defs><filter id="New_Caledonia_svg__b"><feColorMatrix values="0 0 0 0 1 0 0 0 0 1 0 0 0 0 1 0 0 0 1 0"/></filter></defs><mask id="New_Caledonia_svg__a" width="28" height="20" x="0" y="3.995" maskUnits="userSpaceOnUse"><g filter="url(#New_Caledonia_svg__b)"><rect width="28" height="20" y="3.995" fill="#C4C4C4" rx="3"/></g></mask><path d="M0 0H28V28H0z"/><path fill="#0D39A6" d="M0 3.995H28V10.665H0z"/><path fill="#DB4F40" d="M0 10.665H28V17.335H0z"/><path fill="#41924C" d="M0 17.335H28V24.005000000000003H0z"/><circle cx="10.955" cy="13.995" r="6" fill="#F7E54D"/><circle cx="10.955" cy="13.995" r="5.809" stroke="#000" stroke-width=".383"/><path fill="#000" fill-rule="evenodd" d="M10.7149 8.31494L11.1949 8.31494L11.1949 9.382C11.5162 9.20853 11.7857 9.01832 11.9149 8.91494C11.8287 9.19949 11.593 9.69817 11.1949 10.0929L11.1949 11.0716C11.5195 11.1735 11.7549 11.4767 11.7549 11.8349C11.7549 12.1932 11.5195 12.4964 11.1949 12.5983L11.1949 12.7549C11.3549 12.7549 11.7149 12.6429 11.8749 12.1949C12.0349 11.7469 12.2349 11.6083 12.3149 11.5949C12.2616 11.7149 12.1949 11.9149 12.1549 12.1949C12.0927 12.6305 12.0854 12.8146 11.8749 12.9549C11.7549 13.0349 11.6749 13.1549 11.1949 13.1549L11.1949 13.1949L11.9149 13.1949L11.9149 13.5949L11.1949 13.5949L11.1949 13.6187C11.5195 13.685 11.7549 13.8821 11.7549 14.1149C11.7549 14.3478 11.5195 14.5449 11.1949 14.6111L11.1949 14.6349L11.9149 14.6349L11.9149 15.0349L11.1949 15.0349L11.1949 15.1149C11.6749 15.1149 11.7549 15.2349 11.8749 15.3149C12.0854 15.4553 12.0927 15.9194 12.1549 16.3549C12.1949 16.6349 12.2616 17.0749 12.3149 17.1949C12.2349 17.1816 12.0349 16.8429 11.8749 16.3949C11.7149 15.9469 11.3549 15.6749 11.1949 15.6749L11.1949 15.7476C11.4294 15.896 11.5949 16.2553 11.5949 16.6749C11.5949 17.0946 11.4294 17.4539 11.1949 17.6022L11.1949 17.9258C11.4252 17.9469 11.6472 17.9978 11.8569 18.0749L12.9549 19.3549C12.9549 19.3549 12.2749 19.8749 10.9549 19.8749C9.6349 19.8749 8.9549 19.3549 8.9549 19.3549L10.0529 18.0749C10.2626 17.9978 10.4845 17.9469 10.7149 17.9258L10.7149 17.6022C10.4803 17.4539 10.3149 17.0946 10.3149 16.6749C10.3149 16.2553 10.4803 15.896 10.7149 15.7476L10.7149 15.6749C10.5549 15.6749 10.1949 15.9469 10.0349 16.3949C9.8749 16.8429 9.6749 17.1816 9.5949 17.1949C9.64823 17.0749 9.7149 16.6349 9.7549 16.3549C9.81712 15.9194 9.8244 15.4553 10.0349 15.3149C10.1549 15.2349 10.2349 15.1149 10.7149 15.1149L10.7149 15.0349L9.99489 15.0349L9.99489 14.6349L10.7149 14.6349L10.7149 14.6111C10.3903 14.5449 10.1549 14.3478 10.1549 14.1149C10.1549 13.8821 10.3903 13.685 10.7149 13.6187L10.7149 13.5949L9.99489 13.5949L9.99489 13.1949L10.7149 13.1949L10.7149 13.1549C10.2349 13.1549 10.1549 13.0349 10.0349 12.9549C9.8244 12.8146 9.81712 12.6305 9.7549 12.1949C9.7149 11.9149 9.64823 11.7149 9.5949 11.5949C9.6749 11.6083 9.8749 11.7469 10.0349 12.1949C10.1949 12.6429 10.5549 12.7549 10.7149 12.7549L10.7149 12.5983C10.3903 12.4964 10.1549 12.1932 10.1549 11.8349C10.1549 11.4767 10.3903 11.1735 10.7149 11.0716L10.7149 10.4565C10.6146 10.5117 10.508 10.5586 10.3949 10.5949L10.1149 10.7149C10.1038 10.6565 10.0962 10.5838 10.0962 10.5035C10.0962 10.1992 10.2044 9.78686 10.6349 9.63494C10.6616 9.62552 10.6883 9.61567 10.7149 9.60545L10.7149 8.31494Z"/></svg>

<svg xmlns="http://www.w3.org/2000/svg" fill="none" viewBox="0 0 28 28" focusable="false"><mask id="New_Caledonia_svg__a" width="28" height="20" x="0" y="3.995" mask-type="alpha" maskUnits="userSpaceOnUse"><rect width="28" height="20" y="3.995" fill="#C4C4C4" rx="3"/></mask><g mask="url(#New_Caledonia_svg__a)"><path fill="#0D39A6" d="M0 3.995h28v6.67H0z"/></g><g mask="url(#New_Caledonia_svg__a)"><path fill="#DB4F40" d="M0 10.665h28v6.67H0z"/></g><g mask="url(#New_Caledonia_svg__a)"><path fill="#41924C" d="M0 17.335h28v6.67H0z"/></g><g mask="url(#New_Caledonia_svg__a)"><circle cx="10.955" cy="13.995" r="6" fill="#F7E54D"/><circle cx="10.955" cy="13.995" r="5.809" stroke="#000" stroke-width=".383"/></g><g mask="url(#New_Caledonia_svg__a)"><path fill="#000" fill-rule="evenodd" d="M10.71 8.31h.48v1.07c.32-.18.59-.37.72-.47-.09.28-.32.78-.72 1.18v.98c.32.1.56.4.56.76s-.24.66-.56.76v.16c.16 0 .52-.11.68-.56s.36-.59.44-.6c-.05.12-.12.32-.16.6-.06.44-.07.62-.28.76-.12.08-.2.2-.68.2v.04h.72v.4h-.72v.02c.32.07.56.27.56.5s-.24.43-.56.5v.02h.72v.4h-.72v.08c.48 0 .56.12.68.2.21.14.22.6.28 1.04.04.28.11.72.16.84-.08-.01-.28-.35-.44-.8s-.52-.72-.68-.72v.07c.23.15.4.51.4.93s-.17.78-.4.93v.32q.345.03.66.15l1.1 1.28s-.68.52-2 .52-2-.52-2-.52l1.1-1.28q.315-.12.66-.15v-.32c-.23-.15-.4-.51-.4-.93s.17-.78.4-.93v-.07c-.16 0-.52.27-.68.72s-.36.79-.44.8c.05-.12.12-.56.16-.84.06-.44.07-.9.28-1.04.12-.08.2-.2.68-.2v-.08h-.72v-.4h.72v-.02c-.32-.07-.56-.27-.56-.5s.24-.43.56-.5v-.02h-.72v-.4h.72v-.04c-.48 0-.56-.12-.68-.2-.21-.14-.22-.32-.28-.76a2.5 2.5 0 0 0-.16-.6c.08.01.28.15.44.6s.52.56.68.56v-.16c-.32-.1-.56-.4-.56-.76s.24-.66.56-.76v-.62c-.1.06-.21.1-.32.14l-.28.12c-.01-.06-.02-.13-.02-.21 0-.31.11-.72.54-.87.03-.01.05-.02.08-.03z"/></g></svg>
